Origami/32x32/apps/openage.svg

<svg width="32" height="32" version="1" xmlns="http://www.w3.org/2000/svg">
 <path d="m16 3c-7.756 0-14 6.244-14 14s6.244 14 14 14 14-6.244 14-14-6.244-14-14-14z" style="opacity:.2"/>
 <path d="m16 2c-7.756 0-14 6.244-14 14s6.244 14 14 14 14-6.244 14-14-6.244-14-14-14z" style="fill:#4f4f4f"/>
 <path d="m9 8v8.307692c0 1.843339 0.74301 3.619162 2 4.692308l-2 3c2.03602 1.456892 4.4863 1.999931 7 2s4.96398-0.543108 7-2l-2-3c1.25699-1.073076 2-2.848969 2-4.692308v-8.307692h-2.8v3.323631c-0.562877-0.337029-1.164337-0.973602-2.2-1.15477v-2.168861h-4v2.168861c-0.499138 0.09863-1.63713 0.817754-2.2 1.15477v-3.323631zm7 5c1.88699 0 2.79999 0.391924 4 1.084231v2.915769c0 1.755831-2.6 3.307692-4 4-1.4-0.692308-4-2.244169-4-4v-2.915769c1.20001-0.692307 2.11301-1.084231 4-1.084231z" style="opacity:.2"/>
 <path d="m9 7v8.307692c0 1.843339 0.74301 3.619162 2 4.692308l-2 3c2.03602 1.456892 4.4863 1.999931 7 2s4.96398-0.543108 7-2l-2-3c1.25699-1.073076 2-2.848969 2-4.692308v-8.307692h-2.8v3.323631c-0.562877-0.337029-1.164337-0.9736022-2.2-1.1547695v-2.1688615h-4v2.1688615c-0.499138 0.098625-1.63713 0.8177535-2.2 1.1547695v-3.323631zm7 5c1.88699 0 2.79999 0.391924 4 1.084231v2.915769c0 1.755831-2.6 3.307692-4 4-1.4-0.692308-4-2.244169-4-4v-2.915769c1.20001-0.692307 2.11301-1.084231 4-1.084231z" style="fill:#ffffff"/>
 <path d="M 16 2 C 8.244 2 2 8.244 2 16 C 2 16.168842 2.0195214 16.33264 2.0253906 16.5 C 2.2891326 8.9794325 8.4128418 3 16 3 C 23.587158 3 29.710867 8.9794325 29.974609 16.5 C 29.980479 16.33264 30 16.168842 30 16 C 30 8.244 23.756 2 16 2 z" style="fill:#ffffff;opacity:.1"/>
</svg>

<svg xmlns="http://www.w3.org/2000/svg" width="32" height="32" version="1">
 <path style="opacity:0.2" d="M 16,3 C 8.244,3 2,9.244 2,17 2,24.756 8.244,31 16,31 23.756,31 30,24.756 30,17 30,9.244 23.756,3 16,3 Z"/>
 <path style="fill:#4f4f4f" d="M 16,2 C 8.244,2 2,8.244 2,16 2,23.756 8.244,30 16,30 23.756,30 30,23.756 30,16 30,8.244 23.756,2 16,2 Z"/>
 <path style="opacity:0.2" d="m 9,8 0,8.307692 C 9,18.151031 9.74301,19.926854 11,21 l -2,3 c 2.03602,1.456892 4.4863,1.999931 7,2 2.5137,6.9e-5 4.96398,-0.543108 7,-2 l -2,-3 c 1.25699,-1.073076 2,-2.848969 2,-4.692308 L 23,8 l -2.8,0 0,3.323631 C 19.637123,10.986602 19.035663,10.350029 18,10.168861 L 18,8 l -4,0 0,2.168861 c -0.499138,0.09863 -1.63713,0.817754 -2.2,1.15477 L 11.8,8 Z m 7,5 c 1.88699,0 2.79999,0.391924 4,1.084231 L 20,17 c 0,1.755831 -2.6,3.307692 -4,4 -1.4,-0.692308 -4,-2.244169 -4,-4 l 0,-2.915769 C 13.20001,13.391924 14.11301,13 16,13 Z"/>
 <path style="fill:#ffffff" d="m 9,7 0,8.307692 C 9,17.151031 9.74301,18.926854 11,20 l -2,3 c 2.03602,1.456892 4.4863,1.999931 7,2 2.5137,6.9e-5 4.96398,-0.543108 7,-2 l -2,-3 c 1.25699,-1.073076 2,-2.848969 2,-4.692308 L 23,7 l -2.8,0 0,3.323631 C 19.637123,9.986602 19.035663,9.3500288 18,9.1688615 L 18,7 14,7 14,9.1688615 C 13.500862,9.2674865 12.36287,9.986615 11.8,10.323631 L 11.8,7 Z m 7,5 c 1.88699,0 2.79999,0.391924 4,1.084231 L 20,16 c 0,1.755831 -2.6,3.307692 -4,4 -1.4,-0.692308 -4,-2.244169 -4,-4 l 0,-2.915769 C 13.20001,12.391924 14.11301,12 16,12 Z"/>
 <path style="fill:#ffffff;opacity:0.1" d="M 16 2 C 8.244 2 2 8.244 2 16 C 2 16.168842 2.0195214 16.33264 2.0253906 16.5 C 2.2891326 8.9794325 8.4128418 3 16 3 C 23.587158 3 29.710867 8.9794325 29.974609 16.5 C 29.980479 16.33264 30 16.168842 30 16 C 30 8.244 23.756 2 16 2 z"/>
</svg>
